**kern	**silbe	**kern	**silbe	**harmony	**phrase	**leadinstrument	**rhyme	**timestamp	**harte
*ICvox	*	*ICvox	*	*M4/4	*	*	*	*	*M4/4
*VRlead	*	*VRbacking*VRharmonize	*	*	*	*	*	*	*
*Hstimme	*	*Nstimme	*	*	*	*	*	*	*
*C:	*	*C:	*	*C:	*	*	*	*	*C:
*M4/4	*	*M4/4	*	*	*	*	*	*	*
*clefG2	*	*clefG2	*	*	*	*	*	*	*
r;	.	r;	.	1r;	.	r	.	0	N.C.
=1	=1	=1	=1	=1	=1	=1	=1	=1	=1
*>Letter>A	*>Letter>A	*>Letter>A	*>Letter>A	*>Letter>A	*>Letter>A	*>Letter>A	*>Letter>A	*>Letter>A	*>Letter>A
*>Label>Intro	*>Label>Intro	*>Label>Intro	*>Label>Intro	*>Label>Intro	*>Label>Intro	*>Label>Intro	*>Label>Intro	*>Label>Intro	*>Label>Intro
*	*	*	*	*M2/4	*M2/4	*M2/4	*	*M2/4	*M2/4
2r	.	2r	.	8.Dmm	newline	r	.	0.232	D:min7
.	.	.	.	8.FMM	.	r	.	1.009	F:maj7
.	.	.	.	8GMm	.	r	.	.	G:7
=2	=2	=2	=2	=2	=2	=2	=2	=2	=2
*M4/4	*	*M4/4	*	*M4/4	*M4/4	*M4/4	*	*M4/4	*M4/4
1r	.	1r	.	1GMm	.	r	.	1.786	G:7
=3	=3	=3	=3	=3	=3	=3	=3	=3	=3
*M2/4	*	*M2/4	*	*M2/4	*M2/4	*M2/4	*	*M2/4	*M2/4
2r	.	2r	.	8.GM	.	r	.	4.894	G:maj
.	.	.	.	8.CM	.	r	.	5.671	C:maj
.	.	.	.	8FM	.	r	.	6.448	F:maj
=4	=4	=4	=4	=4	=4	=4	=4	=4	=4
*M4/4	*	*M4/4	*	*M4/4	*M4/4	*M4/4	*	*M4/4	*M4/4
1r	.	1r	.	1FM	.	r	.	.	F:maj
=5	=5	=5	=5	=5	=5	=5	=5	=5	=5
*M2/4	*	*M2/4	*	*M2/4	*M2/4	*M2/4	*	*M2/4	*M2/4
2r	.	2r	.	8.Dmm	newline	r	.	9.555	D:min7
.	.	.	.	8.FMM	.	r	.	10.317	F:maj7
.	.	.	.	8GMm	.	r	.	.	G:7
=6	=6	=6	=6	=6	=6	=6	=6	=6	=6
*M4/4	*	*M4/4	*	*M4/4	*M4/4	*M4/4	*	*M4/4	*M4/4
1r	.	1r	.	1GMm	.	r	.	11.079	G:7
=7	=7	=7	=7	=7	=7	=7	=7	=7	=7
*M2/4	*	*M2/4	*	*M2/4	*M2/4	*M2/4	*	*M2/4	*M2/4
2r	.	2r	.	8.GM	.	r	.	14.125	G:maj
.	.	.	.	8.CM	.	r	.	14.887	C:maj
.	.	.	.	8FM	.	r	.	.	F:maj
=8	=8	=8	=8	=8	=8	=8	=8	=8	=8
*M4/4	*	*M4/4	*	*M4/4	*M4/4	*M4/4	*	*M4/4	*M4/4
1r	.	1r	.	1FM	.	r	.	15.649	F:maj
=9	=9	=9	=9	=9	=9	=9	=9	=9	=9
1r	.	1r	.	1CMm	newline	r	.	18.695	C:7
=10	=10	=10	=10	=10	=10	=10	=10	=10	=10
1r	.	1r	.	1CMm	.	r	.	21.809	C:7
=11	=11	=11	=11	=11	=11	=11	=11	=11	=11
*>Letter>B	*>Letter>B	*>Letter>B	*>Letter>B	*>Letter>B	*>Letter>B	*>Letter>B	*>Letter>B	*>Letter>B	*>Letter>B
*>Label>Verse	*>Label>Verse	*>Label>Verse	*>Label>Verse	*>Label>Verse	*>Label>Verse	*>Label>Verse	*>Label>Verse	*>Label>Verse	*>Label>Verse
8.r	.	1r	.	1CM	newline	voice	.	24.922	C:maj
16G	I	.	.	.	.	.	.	.	.
8c	do	.	.	.	.	.	.	.	.
16d	be-	.	.	.	.	.	.	.	.
[16e	-lieve	.	.	.	.	.	.	.	.
16e]	_	.	.	.	.	.	.	.	.
8d	in	.	.	.	.	.	.	.	.
16c	you	.	.	.	.	.	.	.	.
8G	_	.	.	.	.	.	.	.	.
8r	.	.	.	.	.	.	.	.	.
=12	=12	=12	=12	=12	=12	=12	=12	=12	=12
16e-	and	1r	.	2E-M	.	voice	.	28.014	E-:maj
8f	I	.	.	.	.	.	.	.	.
8fq	_	.	.	.	.	.	.	.	.
[16g	know	.	.	.	.	.	.	.	.
16g]	_	.	.	.	.	.	.	.	.
16f	you	.	.	.	.	.	.	.	.
16e-	be-	.	.	.	.	.	.	.	.
8fq	_	.	.	.	.	.	.	.	.
[16g	-lieve	.	.	.	.	.	.	.	.
16g]	_	.	.	2B-M	.	voice	.	29.56	B-:maj
16f	_	.	.	.	.	.	.	.	.
16f	in	.	.	.	.	.	.	.	.
8cq	_	.	.	.	.	.	.	.	.
[16d	me	.	.	.	.	.	A	.	.
16d]	_	.	.	.	.	.	.	.	.
16c	_	.	.	.	.	.	.	.	.
16B-	_	.	.	.	.	.	.	.	.
16r	.	.	.	.	.	.	.	.	.
=13	=13	=13	=13	=13	=13	=13	=13	=13	=13
8fq	_	.	.	.	.	.	.	.	.
8g	oh,	1r	.	8E-M	.	voice	.	31.106	E-:maj/5
4f	_	.	.	4B-M	.	voice	.	31.879	B-:maj
8cq	_	.	.	.	.	.	.	.	.
8d	yeah	.	.	8%5FM	.	voice	.	32.652	F:maj
4c	_	.	.	.	.	.	.	.	.
4r	.	.	.	.	.	.	.	.	.
=14	=14	=14	=14	=14	=14	=14	=14	=14	=14
8fq	_	.	.	.	.	.	.	.	.
8g	Oh,	1r	.	8E-M	.	voice	.	34.198	E-:maj/5
4f	_	.	.	4B-M	.	voice	.	34.971	B-:maj
8cq	_	.	.	.	.	.	.	.	.
8d	yeah	.	.	8%5FM	.	voice	.	35.744	F:maj
4c	_	.	.	.	.	.	.	.	.
4r	.	.	.	.	.	.	.	.	.
=15	=15	=15	=15	=15	=15	=15	=15	=15	=15
8.r	.	1r	.	1CM	newline	voice	.	37.29	C:maj
16G	But	.	.	.	.	.	.	.	.
8c	now	.	.	.	.	.	.	.	.
8d	we	.	.	.	.	.	.	.	.
16e	rea	.	.	.	.	.	.	.	.
8d	_	.	.	.	.	.	.	.	.
16c	lize	.	.	.	.	.	.	.	.
8G	_	.	.	.	.	.	.	.	.
8r	.	.	.	.	.	.	.	.	.
=16	=16	=16	=16	=16	=16	=16	=16	=16	=16
8e-	love's	1r	.	2E-M	.	voice	.	40.338	E-:maj
16f	not	.	.	.	.	.	.	.	.
8fq	_	.	.	.	.	.	.	.	.
[16g	all	.	.	.	.	.	.	.	.
16g]	_	.	.	.	.	.	.	.	.
16f	that	.	.	.	.	.	.	.	.
16e-	it's	.	.	.	.	.	.	.	.
8fq	_	.	.	.	.	.	.	.	.
[16g	s'posed	.	.	.	.	.	.	.	.
16g]	_	.	.	2B-M	.	voice	.	41.862	B-:maj
16f	_	.	.	.	.	.	.	.	.
16f	to	.	.	.	.	.	.	.	.
8cq	_	.	.	.	.	.	.	.	.
[16d	be	.	.	.	.	.	A	.	.
16d]	_	.	.	.	.	.	.	.	.
16c	_	.	.	.	.	.	.	.	.
16B-	_	.	.	.	.	.	.	.	.
16r	.	.	.	.	.	.	.	.	.
=17	=17	=17	=17	=17	=17	=17	=17	=17	=17
8fq	_	.	.	.	.	.	.	.	.
8g	oh,	1r	.	8E-M	.	voice	.	43.386	E-:maj/5
4f	_	.	.	4B-M	.	voice	.	44.148	B-:maj
8cq	_	.	.	.	.	.	.	.	.
8d	yeah	.	.	8%5FM	.	voice	.	44.91	F:maj
4c	_	.	.	.	.	.	.	.	.
4r	.	.	.	.	.	.	.	.	.
=18	=18	=18	=18	=18	=18	=18	=18	=18	=18
8fq	_	.	.	.	.	.	.	.	.
8g	Oh,	1r	.	8E-M	.	voice	.	46.434	E-:maj/5
4f	_	.	.	4B-M	.	voice	.	47.196	B-:maj
8cq	_	.	.	.	.	.	.	.	.
8d	yeah	.	.	8%5FM	.	voice	.	47.958	F:maj
4c	_	.	.	.	.	.	.	.	.
4r	.	.	.	.	.	.	.	.	.
=19	=19	=19	=19	=19	=19	=19	=19	=19	=19
*>Letter>C	*>Letter>C	*>Letter>C	*>Letter>C	*>Letter>C	*>Letter>C	*>Letter>C	*>Letter>C	*>Letter>C	*>Letter>C
*>Label>Chorus	*>Label>Chorus	*>Label>Chorus	*>Label>Chorus	*>Label>Chorus	*>Label>Chorus	*>Label>Chorus	*>Label>Chorus	*>Label>Chorus	*>Label>Chorus
8.r	.	1r	.	1Amm	newline	voice	.	49.482	A:min7
16A	And	.	.	.	.	.	.	.	.
8a	kno-	.	.	.	.	.	.	.	.
16b-	-wing	.	.	.	.	.	.	.	.
[16a	that	.	.	.	.	.	.	.	.
16a]	_	.	.	.	.	.	.	.	.
16fQ	_	.	.	.	.	.	.	.	.
8.g	you	.	.	.	.	.	.	.	.
8f	would	.	.	.	.	.	.	.	.
8e	have	.	.	.	.	.	.	.	.
=20	=20	=20	=20	=20	=20	=20	=20	=20	=20
8f	wan-	1r	.	1Dmm	.	voice	.	52.538	D:min7
16g	-ted	.	.	.	.	.	.	.	.
[16f	it	.	.	.	.	.	.	.	.
16f]	_	.	.	.	.	.	.	.	.
8e	this	.	.	.	.	.	.	.	.
[16d	way	.	.	.	.	.	B	.	.
4d]	_	.	.	.	.	.	.	.	.
4r	.	.	.	.	.	.	.	.	.
=21	=21	=21	=21	=21	=21	=21	=21	=21	=21
8.r	.	1r	.	1Amm	.	voice	.	55.594	A:min7
16A	I	.	.	.	.	.	.	.	.
8a	do	.	.	.	.	.	.	.	.
16b-	be-	.	.	.	.	.	.	.	.
[16a	-lieve	.	.	.	.	.	.	.	.
16a]	_	.	.	.	.	.	.	.	.
32f	I'm	.	.	.	.	.	.	.	.
32g	_	.	.	.	.	.	.	.	.
8g	_	.	.	.	.	.	.	.	.
16f	fee-	.	.	.	.	.	.	.	.
8.e	-ling	.	.	.	.	.	.	.	.
=22	=22	=22	=22	=22	=22	=22	=22	=22	=22
*M2/4	*	*M2/4	*	*M2/4	*M2/4	*M2/4	*	*M2/4	*M2/4
8f	stron-	2r	.	8.Dmm	newline	voice	.	58.649	D:min7
16g	-ger	.	.	.	.	.	.	.	.
16f	ev-	.	.	8.FMM	.	voice	.	59.402	F:maj7
16e	-'ry-	.	.	.	.	.	.	.	.
32d	-day	.	.	.	.	.	B	.	.
32e	_	.	.	.	.	.	.	.	.
[8d	_	.	.	8GMm	.	voice	.	.	G:7
=23	=23	=23	=23	=23	=23	=23	=23	=23	=23
*M4/4	*	*M4/4	*	*M4/4	*M4/4	*M4/4	*	*M4/4	*M4/4
4.d]	_	1r	.	1GMm	.	voice	.	60.155	G:7
8r	.	.	.	.	.	.	.	.	.
2r	.	.	.	.	.	.	.	.	.
=24	=24	=24	=24	=24	=24	=24	=24	=24	=24
*>Letter>B	*>Letter>B	*>Letter>B	*>Letter>B	*>Letter>B	*>Letter>B	*>Letter>B	*>Letter>B	*>Letter>B	*>Letter>B
*>Label>Verse	*>Label>Verse	*>Label>Verse	*>Label>Verse	*>Label>Verse	*>Label>Verse	*>Label>Verse	*>Label>Verse	*>Label>Verse	*>Label>Verse
8.r	.	1r	.	1CM	newline	voice	.	63.166	C:maj
16G	I	.	.	.	.	.	.	.	.
8Aq	_	.	.	.	.	.	.	.	.
8c	know	.	.	.	.	.	.	.	.
8d	we	.	.	.	.	.	.	.	.
16e	real-	.	.	.	.	.	.	.	.
8d	-ly	.	.	.	.	.	.	.	.
16c	tried	.	.	.	.	.	C	.	.
8G	_	.	.	.	.	.	.	.	.
16r	.	.	.	.	.	.	.	.	.
16G	to-	.	.	.	.	.	.	.	.
=25	=25	=25	=25	=25	=25	=25	=25	=25	=25
8dq	_	.	.	.	.	.	.	.	.
16e-	-ge-	2g 2b- 2ee-	_	2E-M	.	voice	.	66.172	E-:maj
8f	-ther	.	.	.	.	.	.	.	.
8fq	_	.	.	.	.	.	.	.	.
[16g	we	.	.	.	.	.	.	.	.
16g]	_	.	.	.	.	.	.	.	.
16f	had	.	.	.	.	.	.	.	.
16e-	_	.	.	.	.	.	.	.	.
8fq	_	.	.	.	.	.	.	.	.
[16g	love	.	.	.	.	.	.	.	.
16g]	_	2f 2b- 2dd	_	2B-M	.	voice	.	67.675	B-:maj
16f	_	.	.	.	.	.	.	.	.
16f	in-	.	.	.	.	.	.	.	.
8cq	_	.	.	.	.	.	.	.	.
[16d	-side	.	.	.	.	.	C	.	.
16d]	_	.	.	.	.	.	.	.	.
16c	_	.	.	.	.	.	.	.	.
16B-	_	.	.	.	.	.	.	.	.
16r	.	.	.	.	.	.	.	.	.
=26	=26	=26	=26	=26	=26	=26	=26	=26	=26
8fq	_	.	.	.	.	.	.	.	.
8g	oh,	1r	.	8.E-M	.	voice	.	69.178	E-:maj/5
4f	_	.	.	.	.	.	.	.	.
.	.	.	.	8.B-M	.	voice	.	69.93	B-:maj
8cq	_	.	.	.	.	.	.	.	.
8d	yeah	.	.	8%5FM	.	voice	.	70.681	F:maj
4c	_	.	.	.	.	.	.	.	.
4r	.	.	.	.	.	.	.	.	.
=27	=27	=27	=27	=27	=27	=27	=27	=27	=27
8fq	_	.	.	.	.	.	.	.	.
8g	Oh,	1r	.	8.E-M	.	voice	.	72.185	E-:maj/5
4f	_	.	.	.	.	.	.	.	.
.	.	.	.	8.B-M	.	voice	.	72.936	B-:maj
8cq	_	.	.	.	.	.	.	.	.
8d	yeah	.	.	8%5FM	.	voice	.	73.688	F:maj
4c	_	.	.	.	.	.	.	.	.
4r	.	.	.	.	.	.	.	.	.
=28	=28	=28	=28	=28	=28	=28	=28	=28	=28
8.r	.	1r	.	1CM	newline	voice	.	75.191	C:maj
16G	So	.	.	.	.	.	.	.	.
8c	now	.	.	.	.	.	.	.	.
16d	the	.	.	.	.	.	.	.	.
16dQ	_	.	.	.	.	.	.	.	.
[16e	time	.	.	.	.	.	.	.	.
16e]	_	.	.	.	.	.	.	.	.
8d	has	.	.	.	.	.	.	.	.
16c	come	.	.	.	.	.	D	.	.
8G	_	.	.	.	.	.	.	.	.
16r	.	.	.	.	.	.	.	.	.
16G	for	.	.	.	.	.	.	.	.
=29	=29	=29	=29	=29	=29	=29	=29	=29	=29
16dQ	_	.	.	.	.	.	.	.	.
8e-	both	2g 2b- 2ee-	_	2E-M	.	voice	.	78.183	E-:maj
16f	of	.	.	.	.	.	.	.	.
8fq	_	.	.	.	.	.	.	.	.
[16g	us	.	.	.	.	.	.	.	.
16g]	_	.	.	.	.	.	.	.	.
16f	to	.	.	.	.	.	.	.	.
16e-	live	.	.	.	.	.	.	.	.
8fq	_	.	.	.	.	.	.	.	.
[16g	on	.	.	.	.	.	.	.	.
16g]	_	2f 2b- 2dd	_	2B-M	.	voice	.	79.679	B-:maj
16f	_	.	.	.	.	.	.	.	.
16f	the	.	.	.	.	.	.	.	.
8cq	_	.	.	.	.	.	.	.	.
[16d	run	.	.	.	.	.	D	.	.
16d]	_	.	.	.	.	.	.	.	.
16c	_	.	.	.	.	.	.	.	.
16B-	_	.	.	.	.	.	.	.	.
16r	.	.	.	.	.	.	.	.	.
=30	=30	=30	=30	=30	=30	=30	=30	=30	=30
8fq	_	.	.	.	.	.	.	.	.
8g	oh,	1r	.	8E-M	.	voice	.	81.175	E-:maj/5
4f	_	.	.	4B-M	.	voice	.	81.924	B-:maj
8cq	_	.	.	.	.	.	.	.	.
8d	yeah	.	.	8%5FM	.	voice	.	82.672	F:maj
4c	_	.	.	.	.	.	.	.	.
4r	.	.	.	.	.	.	.	.	.
=31	=31	=31	=31	=31	=31	=31	=31	=31	=31
8fq	_	.	.	.	.	.	.	.	.
8g	Oh,	1r	.	8E-M	.	voice	.	84.168	E-:maj/5
4f	_	.	.	4B-M	.	voice	.	84.916	B-:maj
8cq	_	.	.	.	.	.	.	.	.
8d	yeah	.	.	8%5FM	.	voice	.	85.664	F:maj
4c	_	.	.	.	.	.	.	.	.
4r	.	.	.	.	.	.	.	.	.
=32	=32	=32	=32	=32	=32	=32	=32	=32	=32
*>Letter>C	*>Letter>C	*>Letter>C	*>Letter>C	*>Letter>C	*>Letter>C	*>Letter>C	*>Letter>C	*>Letter>C	*>Letter>C
*>Label>Chorus	*>Label>Chorus	*>Label>Chorus	*>Label>Chorus	*>Label>Chorus	*>Label>Chorus	*>Label>Chorus	*>Label>Chorus	*>Label>Chorus	*>Label>Chorus
8.r	.	1r	.	1Amm	newline	voice	.	87.16	A:min7
16A	And	.	.	.	.	.	.	.	.
8a	kno-	.	.	.	.	.	.	.	.
16b-	-wing	.	.	.	.	.	.	.	.
[16a	that	.	.	.	.	.	.	.	.
16a]	_	.	.	.	.	.	.	.	.
16fQ	_	.	.	.	.	.	.	.	.
8g	you	.	.	.	.	.	.	.	.
[16f	would	.	.	.	.	.	.	.	.
16f]	_	.	.	.	.	.	.	.	.
8.e	have	.	.	.	.	.	.	.	.
=33	=33	=33	=33	=33	=33	=33	=33	=33	=33
8f	wan-	1r	.	1Dmm	.	voice	.	90.133	D:min7
16g	-ted	.	.	.	.	.	.	.	.
[16f	it	.	.	.	.	.	.	.	.
16f]	_	.	.	.	.	.	.	.	.
8e	this	.	.	.	.	.	.	.	.
[16d	way	.	.	.	.	.	B	.	.
4d]	_	.	.	.	.	.	.	.	.
4r	.	.	.	.	.	.	.	.	.
=34	=34	=34	=34	=34	=34	=34	=34	=34	=34
8.r	.	1r	.	1Amm	.	voice	.	93.105	A:min7
16A	I	.	.	.	.	.	.	.	.
8a	do	.	.	.	.	.	.	.	.
16b-	be-	.	.	.	.	.	.	.	.
[16a	-lieve	.	.	.	.	.	.	.	.
16a]	_	.	.	.	.	.	.	.	.
32f	I'm	.	.	.	.	.	.	.	.
32g	_	.	.	.	.	.	.	.	.
8g	_	.	.	.	.	.	.	.	.
16f	fee-	.	.	.	.	.	.	.	.
8.e	-ling	.	.	.	.	.	.	.	.
=35	=35	=35	=35	=35	=35	=35	=35	=35	=35
*>Letter>A	*>Letter>A	*>Letter>A	*>Letter>A	*>Letter>A	*>Letter>A	*>Letter>A	*>Letter>A	*>Letter>A	*>Letter>A
*>Label>Interlude	*>Label>Interlude	*>Label>Interlude	*>Label>Interlude	*>Label>Interlude	*>Label>Interlude	*>Label>Interlude	*>Label>Interlude	*>Label>Interlude	*>Label>Interlude
*	*	*	*	*M2/4	*M2/4	*M2/4	*	*M2/4	*M2/4
8f	stron-	2r	.	8.Dmm	->newline	voice	.	96.078	D:min7
16g	-ger	.	.	.	.	.	.	.	.
16f	ev-	.	.	8.FM	.	voice	.	96.826	F:maj
16e	-'ry-	.	.	.	.	.	.	.	.
32d	-day	.	.	.	.	.	B	.	.
32e	_	.	.	.	.	.	.	.	.
[8d	_	.	.	8GM	.	voice	.	.	G:maj
=36	=36	=36	=36	=36	=36	=36	=36	=36	=36
*M4/4	*	*M4/4	*	*M4/4	*M4/4	*M4/4	*	*M4/4	*M4/4
2d]	_	1r	.	1GM	.	voice	.	97.573	G:maj
2r	.	.	.	.	.	.	.	.	.
=37	=37	=37	=37	=37	=37	=37	=37	=37	=37
*M2/4	*	*M2/4	*	*M2/4	*M2/4	*M2/4	*	*M2/4	*M2/4
8.d	Yeah,	2r	.	8.GM	.	voice	.	100.563	G:maj
[16e	yeah,	.	.	8.CM	.	voice	.	101.31	C:maj
8e]	_	.	.	.	.	.	.	.	.
8eq	_	.	.	.	.	.	.	.	.
[8f	yeah	.	.	8FM	.	voice	.	.	F:maj
=38	=38	=38	=38	=38	=38	=38	=38	=38	=38
*M4/4	*	*M4/4	*	*M4/4	*M4/4	*M4/4	*	*M4/4	*M4/4
2f]	_	1r	.	1FM	.	voice	.	102.057	F:maj
2r	.	.	.	.	.	.	.	.	.
=39	=39	=39	=39	=39	=39	=39	=39	=39	=39
*M2/4	*	*M2/4	*	*M2/4	*M2/4	*M2/4	*	*M2/4	*M2/4
2r	.	2r	.	8.Dmm	newline	voice	.	105.047	D:min7
.	.	.	.	8.FM	.	voice	.	105.796	F:maj
.	.	.	.	8GM	.	voice	.	.	G:maj
=40	=40	=40	=40	=40	=40	=40	=40	=40	=40
*M4/4	*	*M4/4	*	*M4/4	*M4/4	*M4/4	*	*M4/4	*M4/4
1r	.	1r	.	1GM	.	voice	.	106.546	G:maj
=41	=41	=41	=41	=41	=41	=41	=41	=41	=41
*M2/4	*	*M2/4	*	*M2/4	*M2/4	*M2/4	*	*M2/4	*M2/4
8.d	Yeah,	2r	.	8.GM	.	voice	.	109.543	G:maj
[16e	yeah,	.	.	8.CM	.	voice	.	110.292	C:maj
8e]	_	.	.	.	.	.	.	.	.
8eq	_	.	.	.	.	.	.	.	.
[8f	yeah	.	.	8FM	.	voice	.	.	F:maj
=42	=42	=42	=42	=42	=42	=42	=42	=42	=42
*M4/4	*	*M4/4	*	*M4/4	*M4/4	*M4/4	*	*M4/4	*M4/4
4f_	_	1r	.	1FM	.	voice	.	111.042	F:maj
16.f]	_	.	.	.	.	.	.	.	.
32e	_	.	.	.	.	.	.	.	.
32d	_	.	.	.	.	.	.	.	.
32c	_	.	.	.	.	.	.	.	.
16r	.	.	.	.	.	.	.	.	.
2r	.	.	.	.	.	.	.	.	.
=43	=43	=43	=43	=43	=43	=43	=43	=43	=43
8B-q	_	.	.	.	.	.	.	.	.
2.c	Hah	1r	.	1CMm	newline	voice	.	114.039	C:7
4r	.	.	.	.	.	.	.	.	.
=44	=44	=44	=44	=44	=44	=44	=44	=44	=44
1r	.	1r	.	1CMm	.	voice	.	117.022	C:7
=45	=45	=45	=45	=45	=45	=45	=45	=45	=45
*>Letter>D	*>Letter>D	*>Letter>D	*>Letter>D	*>Letter>D	*>Letter>D	*>Letter>D	*>Letter>D	*>Letter>D	*>Letter>D
*>Label>Bridge	*>Label>Bridge	*>Label>Bridge	*>Label>Bridge	*>Label>Bridge	*>Label>Bridge	*>Label>Bridge	*>Label>Bridge	*>Label>Bridge	*>Label>Bridge
1r	.	1r	.	2.GM	newline	voice	.	120.005	G:maj
.	.	.	.	4CM	.	voice	.	122.257	C:maj
=46	=46	=46	=46	=46	=46	=46	=46	=46	=46
1r	.	1r	.	2.DM	.	voice	.	123.008	D:maj
.	.	.	.	4CM	.	voice	.	125.261	C:maj
=47	=47	=47	=47	=47	=47	=47	=47	=47	=47
1r	.	1r	.	2.GM	.	voice	.	126.012	G:maj
.	.	.	.	4CM	.	voice	.	128.264	C:maj
=48	=48	=48	=48	=48	=48	=48	=48	=48	=48
!!Double Time	NA
*A:	*	*A:	*	*A:	*	*	*	*	*A:
1r	.	1r	.	1AMm	newline	voice	.	129.015	A:7
=49	=49	=49	=49	=49	=49	=49	=49	=49	=49
1r	.	1r	.	1AMm	.	voice	.	132.095	A:7
=50	=50	=50	=50	=50	=50	=50	=50	=50	=50
1r	.	1r	.	1AMm	.	voice	.	.	A:7
=51	=51	=51	=51	=51	=51	=51	=51	=51	=51
1r	.	1r	.	1AMm	.	voice	.	.	A:7
=52	=52	=52	=52	=52	=52	=52	=52	=52	=52
1r	.	1r	.	1AMm	newline	voice	.	135.176	A:7
=53	=53	=53	=53	=53	=53	=53	=53	=53	=53
4A	Af-	1r	.	1AMm	.	voice	.	.	A:7
8c#	-ter	.	.	.	.	.	.	.	.
8e	what	.	.	.	.	.	.	.	.
8r	.	.	.	.	.	.	.	.	.
4a	you	.	.	.	.	.	.	.	.
16aQ	_	.	.	.	.	.	.	.	.
8b	meant	.	.	.	.	.	.	.	.
=54	=54	=54	=54	=54	=54	=54	=54	=54	=54
8r	.	1r	.	1EMm	.	voice	.	138.202	E:7
16gQ	_	.	.	.	.	.	.	.	.
4f#	to	.	.	.	.	.	.	.	.
[8e	me	.	.	.	.	.	A	.	.
2e]	_	.	.	.	.	.	.	.	.
=55	=55	=55	=55	=55	=55	=55	=55	=55	=55
2r	.	1r	.	1EMm	.	voice	.	.	E:7
8f#q	_	.	.	.	.	.	.	.	.
4.g#	ooh,	.	.	.	.	.	.	.	.
[8f#	ba	.	.	.	.	.	.	.	.
=56	=56	=56	=56	=56	=56	=56	=56	=56	=56
8f#]	_	1r	.	1BM	.	voice	.	141.229	B:maj
8d	by	.	.	.	.	.	.	.	.
8c#	_	.	.	.	.	.	.	.	.
[8B	now,	.	.	.	.	.	.	.	.
4.B]	_	.	.	.	.	.	.	.	.
[8f#	I	.	.	.	.	.	.	.	.
=57	=57	=57	=57	=57	=57	=57	=57	=57	=57
8f#]	_	1r	.	1F#M	.	voice	.	142.742	F#:maj
4f#	can	.	.	.	.	.	.	.	.
[8f#	make	.	.	.	.	.	.	.	.
8f#]	_	.	.	.	.	.	.	.	.
8g#	it	.	.	.	.	.	.	.	.
8a#	_	.	.	.	.	.	.	.	.
[8g#	ea	.	.	.	.	.	.	.	.
=58	=58	=58	=58	=58	=58	=58	=58	=58	=58
8g#]	_	1r	.	1C#M	.	voice	.	144.256	C#:maj
8e#	si	.	.	.	.	.	.	.	.
8d#	_	.	.	.	.	.	.	.	.
[8c#	ly	.	.	.	.	.	A	.	.
4c#]	_	.	.	.	.	.	.	.	.
4r	.	.	.	.	.	.	.	.	.
=59	=59	=59	=59	=59	=59	=59	=59	=59	=59
1r	.	2c# 2g#	Yeah,	2C#M	.	voice	.	.	C#:maj
.	.	2B 2f#	yeah,	2BM	.	voice	.	146.526	B:maj
=60	=60	=60	=60	=60	=60	=60	=60	=60	=60
1r	.	[1A [1e	yeah	1AMm	newline	voice	.	147.282	A:7
=61	=61	=61	=61	=61	=61	=61	=61	=61	=61
8A	I	2A] 2e]	_	1AMm	.	voice	.	.	A:7
4c#	know	.	.	.	.	.	.	.	.
[8e	that	.	.	.	.	.	.	.	.
8e]	_	2r	.	.	.	.	.	.	.
4a	we	.	.	.	.	.	.	.	.
16aQ	_	.	.	.	.	.	.	.	.
[8b	both	.	.	.	.	.	.	.	.
=62	=62	=62	=62	=62	=62	=62	=62	=62	=62
8b]	_	[1B [1e	_	1EMm	.	voice	.	150.26	E:7
16gQ	_	.	.	.	.	.	.	.	.
4f#	a-	.	.	.	.	.	.	.	.
[8e	-gree	.	.	.	.	.	A	.	.
4e]	_	.	.	.	.	.	.	.	.
4r	.	.	.	.	.	.	.	.	.
=63	=63	=63	=63	=63	=63	=63	=63	=63	=63
4g#	best	2B] 2e]	_	1EMm	.	voice	.	.	E:7
8g#	thing	.	.	.	.	.	.	.	.
8f#	to	.	.	.	.	.	.	.	.
8g#	hap-	4B] 4e]	_	.	.	.	.	.	.
8f#	-pen	.	.	.	.	.	.	.	.
8e	to	4r	.	.	.	.	.	.	.
8f#q	_	.	.	.	.	.	.	.	.
[8g#	you	.	.	.	.	.	.	.	.
=64	=64	=64	=64	=64	=64	=64	=64	=64	=64
8g#]	_	1B 1f#	_	1BM	.	voice	.	153.238	B:maj
4f#	_	.	.	.	.	.	.	.	.
8r	.	.	.	.	.	.	.	.	.
4.r	.	.	.	.	.	.	.	.	.
8~c#	the	.	.	.	.	.	.	.	.
=65	=65	=65	=65	=65	=65	=65	=65	=65	=65
4cc#	best	1c# 1f#	_	1F#M	.	voice	.	154.726	F#:maj
8cc#	thing	.	.	.	.	.	.	.	.
8cc#	to	.	.	.	.	.	.	.	.
8a#	hap-	.	.	.	.	.	.	.	.
8g#	-pen	.	.	.	.	.	.	.	.
8f#	to	.	.	.	.	.	.	.	.
[8a#	me,	.	.	.	.	.	A	.	.
=66	=66	=66	=66	=66	=66	=66	=66	=66	=66
*	*	*clefC3	*	*	*	*	*	*	*
8a#]	_	1r	.	1C#M	.	voice	.	156.215	C#:maj
[4.g#	_	.	.	.	.	.	.	.	.
4.g#]	_	.	.	.	.	.	.	.	.
8f#	y-	.	.	.	.	.	.	.	.
=67	=67	=67	=67	=67	=67	=67	=67	=67	=67
4.g#	-yeah,	2c# 2g#	Yeah,	2C#M	.	voice	.	.	C#:maj
8f#	y-	.	.	.	.	.	.	.	.
4.f#	-yeah,	2B 2f#	yeah,	2BM	.	voice	.	158.448	B:maj
8e	y...	.	.	.	.	.	.	.	.
=68	=68	=68	=68	=68	=68	=68	=68	=68	=68
*>Letter>E	*>Letter>E	*>Letter>E	*>Letter>E	*>Letter>E	*>Letter>E	*>Letter>E	*>Letter>E	*>Letter>E	*>Letter>E
*>Label>Outro	*>Label>Outro	*>Label>Outro	*>Label>Outro	*>Label>Outro	*>Label>Outro	*>Label>Outro	*>Label>Outro	*>Label>Outro	*>Label>Outro
*B:	*	*	*	*B:	*	*	*	*	*B:
1r	.	2.A 2.e	yeah!	1AM	newline	.	.	159.193	A:maj
.	.	4r	.	.	.	.	.	.	.
=69	=69	=69	=69	=69	=69	=69	=69	=69	=69
1r	.	1r	.	1EM	.	.	.	160.697	E:maj
=70	=70	=70	=70	=70	=70	=70	=70	=70	=70
1r	.	1r	.	1BMm	.	.	.	162.202	B:7
=71	=71	=71	=71	=71	=71	=71	=71	=71	=71
1r	.	1r	.	1BMm	.	.	.	.	B:7
=72	=72	=72	=72	=72	=72	=72	=72	=72	=72
1r	.	1r	.	1AM	.	.	.	165.21	A:maj
=73	=73	=73	=73	=73	=73	=73	=73	=73	=73
1r	.	1r	.	1EM	.	.	.	166.715	E:maj
=74	=74	=74	=74	=74	=74	=74	=74	=74	=74
1r	.	8e 8a	Wow	1BMm	.	.	.	168.219	B:7
.	.	4.f# 4.b	_	.	.	.	.	.	.
.	.	2r	.	.	.	.	.	.	.
=75	=75	=75	=75	=75	=75	=75	=75	=75	=75
1r	.	1r	.	1BMm	.	.	.	.	B:7
=76	=76	=76	=76	=76	=76	=76	=76	=76	=76
1r	.	1r	.	1AM	newline	.	.	171.228	A:maj
=77	=77	=77	=77	=77	=77	=77	=77	=77	=77
1r	.	1r	.	1EM	.	.	.	172.696	E:maj
=78	=78	=78	=78	=78	=78	=78	=78	=78	=78
1r	.	8e 8a	Wow	1BMm	.	.	.	174.165	B:7
.	.	4.f# 4.b	_	.	.	.	.	.	.
.	.	2r	.	.	.	.	.	.	.
=79	=79	=79	=79	=79	=79	=79	=79	=79	=79
1r	.	1r	.	1BMm	.	.	.	.	B:7
=80	=80	=80	=80	=80	=80	=80	=80	=80	=80
1r	.	1r	.	1AM	.	.	.	177.101	A:maj
=81	=81	=81	=81	=81	=81	=81	=81	=81	=81
1r	.	1r	.	1EM	.	.	.	178.569	E:maj
=82	=82	=82	=82	=82	=82	=82	=82	=82	=82
1r	.	8e 8a	Wow	1BMm	.	.	.	180.037	B:7
.	.	4.f# 4.b	_	.	.	.	.	.	.
.	.	2r	.	.	.	.	.	.	.
=83	=83	=83	=83	=83	=83	=83	=83	=83	=83
1r	.	1r	.	1BMm	.	.	.	.	B:7
=84	=84	=84	=84	=84	=84	=84	=84	=84	=84
*	*	*clefC3	*	*	*	*	*	*	*
2r	.	2r	.	1AM	newline	.	.	182.973	A:maj
4g#	Fee-	4c#	Fee-	.	.	.	.	.	.
4b	-lin'	4e	-lin'	.	.	.	.	.	.
=85	=85	=85	=85	=85	=85	=85	=85	=85	=85
4b	stron-	4e	stron-	1EM	.	.	.	184.437	E:maj
4b	-ger	4e	-ger	.	.	.	.	.	.
4b	ev-	4e	ev-	.	.	.	.	.	.
8g#	-'ry-	8c#	-'ry-	.	.	.	.	.	.
[8f#	-day	[8B	-day	.	.	.	.	.	.
=86	=86	=86	=86	=86	=86	=86	=86	=86	=86
1f#_	_	1B_	_	1BMm	.	.	.	185.901	B:7
=87	=87	=87	=87	=87	=87	=87	=87	=87	=87
2f#]	_	2B]	_	1BMm	.	.	.	.	B:7
4f#]	_	4B]	_	.	.	.	.	.	.
4r	.	4r	.	.	.	.	.	.	.
=88	=88	=88	=88	=88	=88	=88	=88	=88	=88
2r	.	2r	.	1AM	.	.	.	188.828	A:maj
4f#	Fee-	4B	Fee-	.	.	.	.	.	.
4g#	-lin'	4c#	-lin'	.	.	.	.	.	.
=89	=89	=89	=89	=89	=89	=89	=89	=89	=89
4b	stron-	4e	stron-	1EM	.	.	.	190.292	E:maj
4b	-ger	4e	-ger	.	.	.	.	.	.
4b	ev-	4e	ev-	.	.	.	.	.	.
8g#	-'ry-	8c#	-'ry-	.	.	.	.	.	.
[8f#	-day	[8B	-day	.	.	.	.	.	.
=90	=90	=90	=90	=90	=90	=90	=90	=90	=90
1f#_	_	1B_	_	1BMm	.	.	.	191.755	B:7
=91	=91	=91	=91	=91	=91	=91	=91	=91	=91
2f#]	_	2B]	_	1BMm	.	.	.	.	B:7
4f#]	_	4B]	_	.	.	.	.	.	.
4r	.	4r	.	.	.	.	.	.	.
=92	=92	=92	=92	=92	=92	=92	=92	=92	=92
1r	.	2r	.	1AM	newline	.	.	194.683	A:maj
.	.	4c# 4g#	Fee-	.	.	.	.	.	.
.	.	4e 4b	-lin'	.	.	.	.	.	.
=93	=93	=93	=93	=93	=93	=93	=93	=93	=93
1r	.	4e 4b	stron-	1EM	.	.	.	196.172	E:maj
.	.	4e 4b	-ger	.	.	.	.	.	.
.	.	4e 4b	ev-	.	.	.	.	.	.
.	.	8c# 8g#	-'ry-	.	.	.	.	.	.
.	.	[8B [8f#	-day	.	.	.	.	.	.
=94	=94	=94	=94	=94	=94	=94	=94	=94	=94
1r	.	1B_ 1f#_	_	1BMm	.	.	.	197.66	B:7
=95	=95	=95	=95	=95	=95	=95	=95	=95	=95
8e 8b	(vocalizing)	2B] 2f#]	_	1BMm	.	.	.	.	B:7
8c# 8g#	_	.	.	.	.	.	.	.	.
8A 8e	_	.	.	.	.	.	.	.	.
8B 8f#	_	.	.	.	.	.	.	.	.
8r	.	4B] 4f#]	_	.	.	.	.	.	.
8B 8f#	_	.	.	.	.	.	.	.	.
[4A [4e	_	4r	.	.	.	.	.	.	.
=96	=96	=96	=96	=96	=96	=96	=96	=96	=96
1A] 1e]	_	2r	.	1AM	.	.	.	200.638	A:maj
.	.	4c# 4g#	Fee-	.	.	.	.	.	.
.	.	4e 4b	-lin'	.	.	.	.	.	.
=97	=97	=97	=97	=97	=97	=97	=97	=97	=97
1r	.	4e 4b	stron-	1EM	.	.	.	202.126	E:maj
.	.	4e 4b	-ger	.	.	.	.	.	.
.	.	4e 4b	ev-	.	.	.	.	.	.
.	.	8c# 8g#	-'ry-	.	.	.	.	.	.
.	.	[8B [8f#	-day	.	.	.	.	.	.
=98	=98	=98	=98	=98	=98	=98	=98	=98	=98
1r	.	1B_ 1f#_	_	1BMm	.	.	.	203.615	B:7
=99	=99	=99	=99	=99	=99	=99	=99	=99	=99
8e 8b	(vocalizing)	2B] 2f#]	_	1BMm	.	.	.	.	B:7
8c# 8g#	_	.	.	.	.	.	.	.	.
8A 8e	_	.	.	.	.	.	.	.	.
8B 8f#	_	.	.	.	.	.	.	.	.
8r	.	4B] 4f#]	_	.	.	.	.	.	.
8B 8f#	_	.	.	.	.	.	.	.	.
[4A [4e	_	4r	.	.	.	.	.	.	.
=100	=100	=100	=100	=100	=100	=100	=100	=100	=100
1A] 1e]	_	2r	.	1AM	newline	.	.	206.593	A:maj
.	.	4c# 4g#	Fee-	.	.	.	.	.	.
.	.	4e 4b	-lin'	.	.	.	.	.	.
=101	=101	=101	=101	=101	=101	=101	=101	=101	=101
1r	.	4e 4b	stron-	1EM	.	.	.	208.067	E:maj
.	.	4e 4b	-ger	.	.	.	.	.	.
.	.	4e 4b	ev-	.	.	.	.	.	.
.	.	8c# 8g#	-'ry-	.	.	.	.	.	.
.	.	[8B [8f#	-day	.	.	.	.	.	.
=102	=102	=102	=102	=102	=102	=102	=102	=102	=102
1r	.	1B_ 1f#_	_	1BMm	.	.	.	209.542	B:7
=103	=103	=103	=103	=103	=103	=103	=103	=103	=103
8e 8b	(vocalizing)	2B] 2f#]	_	1BMm	.	.	.	.	B:7
8c# 8g#	_	.	.	.	.	.	.	.	.
8A 8e	_	.	.	.	.	.	.	.	.
8B 8f#	_	.	.	.	.	.	.	.	.
8r	.	4B] 4f#]	_	.	.	.	.	.	.
8B 8f#	_	.	.	.	.	.	.	.	.
[4A [4e	_	4r	.	.	.	.	.	.	.
=104	=104	=104	=104	=104	=104	=104	=104	=104	=104
1A] 1e]	_	2r	.	1AM	.	.	.	212.492	A:maj
.	.	4c# 4g#	Fee-	.	.	.	.	.	.
.	.	4e 4b	-lin'	.	.	.	.	.	.
=105	=105	=105	=105	=105	=105	=105	=105	=105	=105
1r	.	4e 4b	stron-	1EM	.	.	.	213.966	E:maj
.	.	4e 4b	-ger	.	.	.	.	.	.
.	.	4e 4b	ev-	.	.	.	.	.	.
.	.	8c# 8g#	-'ry-	.	.	.	.	.	.
.	.	[8B [8f#	-day	.	.	.	.	.	.
=106	=106	=106	=106	=106	=106	=106	=106	=106	=106
1r	.	1B_ 1f#_	_	1BMm	.	.	.	215.441	B:7
=107	=107	=107	=107	=107	=107	=107	=107	=107	=107
8e 8b	(vocalizing)	2B] 2f#]	_	1BMm	.	.	.	.	B:7
8c# 8g#	_	.	.	.	.	.	.	.	.
8A 8e	_	.	.	.	.	.	.	.	.
8B 8f#	_	.	.	.	.	.	.	.	.
8r	.	4B] 4f#]	_	.	.	.	.	.	.
8B 8f#	_	.	.	.	.	.	.	.	.
[4A [4e	_	4r	.	.	.	.	.	.	.
=108	=108	=108	=108	=108	=108	=108	=108	=108	=108
1A] 1e]	_	2r	.	1AM	newline	.	.	218.39	A:maj
.	.	4c# 4g#	Fee-	.	.	.	.	.	.
.	.	4e 4b	-lin'	.	.	.	.	.	.
=109	=109	=109	=109	=109	=109	=109	=109	=109	=109
1r	.	4e 4b	stron-	1EM	.	.	.	219.882	E:maj
.	.	4e 4b	-ger	.	.	.	.	.	.
.	.	4e 4b	ev-	.	.	.	.	.	.
.	.	8c# 8g#	-'ry-	.	.	.	.	.	.
.	.	[8B [8f#	-day	.	.	.	.	.	.
=110	=110	=110	=110	=110	=110	=110	=110	=110	=110
1r	.	1B_ 1f#_	_	1BMm	.	.	.	221.373	B:7
=111	=111	=111	=111	=111	=111	=111	=111	=111	=111
8e 8b	(vocalizing)	2B] 2f#]	_	1BMm	.	.	.	.	B:7
8c# 8g#	_	.	.	.	.	.	.	.	.
8A 8e	_	.	.	.	.	.	.	.	.
8B 8f#	_	.	.	.	.	.	.	.	.
8r	.	4B] 4f#]	_	.	.	.	.	.	.
8B 8f#	_	.	.	.	.	.	.	.	.
[4A [4e	_	4r	.	.	.	.	.	.	.
=112	=112	=112	=112	=112	=112	=112	=112	=112	=112
1A] 1e]	_	2r	.	1AM	.	.	.	224.356	A:maj
.	.	4c# 4g#	Fee-	.	.	.	.	.	.
.	.	4e 4b	-lin'	.	.	.	.	.	.
=113	=113	=113	=113	=113	=113	=113	=113	=113	=113
1r	.	4e 4b	stron-	1EM	.	.	.	225.848	E:maj
.	.	4e 4b	-ger	.	.	.	.	.	.
.	.	4e 4b	ev-	.	.	.	.	.	.
.	.	8c# 8g#	-'ry-	.	.	.	.	.	.
.	.	[8B [8f#	-day	.	.	.	.	.	.
=114	=114	=114	=114	=114	=114	=114	=114	=114	=114
1r	.	1B_ 1f#_	_	1BMm	.	.	.	227.339	B:7
=115	=115	=115	=115	=115	=115	=115	=115	=115	=115
8e 8b	(vocalizing)	2B] 2f#]	_	1BMm	.	.	.	.	B:7
8c# 8g#	_	.	.	.	.	.	.	.	.
8A 8e	_	.	.	.	.	.	.	.	.
8B 8f#	_	.	.	.	.	.	.	.	.
8r	.	4B] 4f#]	_	.	.	.	.	.	.
8B 8f#	_	.	.	.	.	.	.	.	.
[4A [4e	_	4r	.	.	.	.	.	.	.
=116	=116	=116	=116	=116	=116	=116	=116	=116	=116
*>Label>>Fadeout	*>Label>>Fadeout	*>Label>>Fadeout	*>Label>>Fadeout	*>Label>>Fadeout	*>Label>>Fadeout	*>Label>>Fadeout	*>Label>>Fadeout	*>Label>>Fadeout	*>Label>>Fadeout
1A] 1e]	_	2r	.	1AM	newline	.	.	230.322	A:maj
.	.	4c# 4g#	Fee-	.	.	.	.	.	.
.	.	4e 4b	-lin'	.	.	.	.	.	.
=117	=117	=117	=117	=117	=117	=117	=117	=117	=117
1r	.	4e 4b	stron-	1EM	.	.	.	231.802	E:maj
.	.	4e 4b	-ger	.	.	.	.	.	.
.	.	4e 4b	ev-	.	.	.	.	.	.
.	.	8c# 8g#	-'ry-	.	.	.	.	.	.
.	.	[8B [8f#	-day	.	.	.	.	.	.
=118	=118	=118	=118	=118	=118	=118	=118	=118	=118
1r	.	1B_ 1f#_	_	1BMm	.	.	.	233.281	B:7
=119	=119	=119	=119	=119	=119	=119	=119	=119	=119
8e 8b	(vocalizing)	2B] 2f#]	_	1BMm	.	.	.	.	B:7
8c# 8g#	_	.	.	.	.	.	.	.	.
8A 8e	_	.	.	.	.	.	.	.	.
8B 8f#	_	.	.	.	.	.	.	.	.
8r	.	4B] 4f#]	_	.	.	.	.	.	.
8B 8f#	_	.	.	.	.	.	.	.	.
[4A [4e	_	4r	.	.	.	.	.	.	.
=120	=120	=120	=120	=120	=120	=120	=120	=120	=120
1A] 1e]	_	2r	.	1AM	.	.	.	236.241	A:maj
.	.	4c# 4g#	Fee-	.	.	.	.	.	.
.	.	4e 4b	-lin'	.	.	.	.	.	.
=121	=121	=121	=121	=121	=121	=121	=121	=121	=121
1r	.	4e 4b	stron-	1EM	.	.	.	237.721	E:maj
.	.	4e 4b	-ger	.	.	.	.	.	.
.	.	4e 4b	ev-	.	.	.	.	.	.
.	.	8c# 8g#	-'ry-	.	.	.	.	.	.
.	.	[8B [8f#	-day	.	.	.	.	.	.
=122	=122	=122	=122	=122	=122	=122	=122	=122	=122
1r	.	1B_ 1f#_	_	1BMm	.	.	.	239.201	B:7
=123	=123	=123	=123	=123	=123	=123	=123	=123	=123
8e 8b	(vocalizing)	2B] 2f#]	_	1BMm	.	.	.	.	B:7
8c# 8g#	_	.	.	.	.	.	.	.	.
8A 8e	_	.	.	.	.	.	.	.	.
8B 8f#	_	.	.	.	.	.	.	.	.
8r	.	4B] 4f#]	_	.	.	.	.	.	.
8B 8f#	_	.	.	.	.	.	.	.	.
[4A [4e	_	4r	.	.	.	.	.	.	.
=124	=124	=124	=124	=124	=124	=124	=124	=124	=124
1A] 1e]	_	2r	.	1AM	newline	.	.	242.16	A:maj
.	.	4c# 4g#	Fee-	.	.	.	.	.	.
.	.	4e 4b	-lin'	.	.	.	.	.	.
=125	=125	=125	=125	=125	=125	=125	=125	=125	=125
1r	.	4e 4b	stron-	1EM	.	.	.	243.362	E:maj
.	.	4e 4b	-ger	.	.	.	.	.	.
.	.	4e 4b	ev-	.	.	.	.	.	.
.	.	8c# 8g#	-'ry-	.	.	.	.	.	.
.	.	[8B [8f#	-day	.	.	.	.	.	.
=126	=126	=126	=126	=126	=126	=126	=126	=126	=126
1r	.	1B_ 1f#_	_	1BMm	.	.	.	244.564	B:7
=127	=127	=127	=127	=127	=127	=127	=127	=127	=127
8e 8b	(vocalizing)	2B] 2f#]	_	1BMm	.	.	.	.	B:7
8c# 8g#	_	.	.	.	.	.	.	.	.
8A 8e	_	.	.	.	.	.	.	.	.
8B 8f#	_	.	.	.	.	.	.	.	.
8r	.	4B] 4f#]	_	.	.	.	.	.	.
8B 8f#	_	.	.	.	.	.	.	.	.
4A 4e	_	4r	.	.	.	.	.	.	.
=128	=128	=128	=128	=128	=128	=128	=128	=128	=128
1r	.	2r	.	1AM	.	.	.	246.967	A:maj
.	.	4c# 4g#	Fee-	.	.	.	.	.	.
.	.	4e 4b	-lin'	.	.	.	.	.	.
=129	=129	=129	=129	=129	=129	=129	=129	=129	=129
1r	.	4e 4b	stron-	1EM	.	.	.	248.169	E:maj
.	.	4e 4b	-ger	.	.	.	.	.	.
.	.	4e 4b	ev-	.	.	.	.	.	.
.	.	8c# 8g#	-'ry-	.	.	.	.	.	.
.	.	[8B [8f#	-day	.	.	.	.	.	.
=130	=130	=130	=130	=130	=130	=130	=130	=130	=130
1r	.	1B_ 1f#_	_	1BMm	.	.	.	249.37	B:7
=131	=131	=131	=131	=131	=131	=131	=131	=131	=131
1r	.	2B] 2f#]	_	1BMm	.	.	.	.	B:7
.	.	4B] 4f#]	_	.	.	.	.	.	.
.	.	4r	.	.	.	.	.	.	.
r;	.	r;	.	1r;	.	r	.	251.774	N.C.
r;	.	r;	.	1r;	.	r	.	253.91	N.C.
*-	*-	*-	*-	*-	*-	*-	*-	*-	*-
!!!BillboardChartDate: 1973/08/25, 1973/08/11
!!!BillboardPeak: 10, 10
!!!BillboardWeeksOnChart: 16, 16
!!!COC: Chicago
!!!EMD: Need to listen to song, there are clearly key changes missing. -Nat
!!!ENC: Nathaniel Condit-Schultz
!!!EST: Awating manual error checking and editing.
!!!OTL: Feelin' Stronger Every Day
!!!RDF**chordsym: original McGill chord annotation + (implied pitch class set, with bass pitch in first position)
!!!RDF**harmony: **recip + pitch class of root + harmonic quality
!!!RDF**leadinstrument: original McGill primary instrumentation annotation
!!!RDF**phrase: newline = linebreak in original McGill transcription
!!!RDF**timestamp: McGill audio timestamp in seconds
!!!RDT: 2017/01/12/
!!!SampleActualRank: 11, 11
!!!SampleID#: 366, 684
!!!SampleTargetRank: 9, 11
